public/piece/pixel/wQ.svg

<svg xmlns="http://www.w3.org/2000/svg" shape-rendering="crispEdges" viewBox="0 -0.5 16 16"><path stroke="#000" d="M7 1h2M6 2h1m2 0h1M6 3h1m2 0h1M7 4h2M1 5h1m12 0h1M2 6h2m3 0h2m3 0h2M2 7h1m1 0h1m1 0h1m2 0h1m1 0h1m1 0h1M2 8h1m2 0h1m4 0h1m2 0h1M3 9h1m8 0h1M3 10h1m8 0h1m-9 1h1m6 0h1m-8 1h8m-9 1h1m8 0h1M3 14h10"/><path stroke="#fdfdfd" d="M7 2h1M3 7h1M3 8h1"/><path stroke="#a7a7a7" d="M8 2h1M8 3h1m3 4h1m-2 1h2m-2 1h1m-2 1h2m-3 1h2m-2 2h3"/><path stroke="#e1e1e1" d="M7 3h1M7 7h1M4 8h1m1 0h1M4 9h2m-2 1h2m-1 1h1m-2 2h2"/><path stroke="#c1c1c1" d="M8 7h1M7 8h3M6 9h5m-5 1h4m-4 1h3m-3 2h3"/></svg>

<svg xmlns="http://www.w3.org/2000/svg" viewBox="0 -0.5 16 16" shape-rendering="crispEdges">
<metadata>Made with Pixels to Svg https://codepen.io/shshaw/pen/XbxvNj</metadata>
<path stroke="#000000" d="M7 1h2M6 2h1M9 2h1M6 3h1M9 3h1M7 4h2M1 5h1M14 5h1M2 6h2M7 6h2M12 6h2M2 7h1M4 7h1M6 7h1M9 7h1M11 7h1M13 7h1M2 8h1M5 8h1M10 8h1M13 8h1M3 9h1M12 9h1M3 10h1M12 10h1M4 11h1M11 11h1M4 12h8M3 13h1M12 13h1M3 14h10" />
<path stroke="#fdfdfd" d="M7 2h1M3 7h1M3 8h1" />
<path stroke="#a7a7a7" d="M8 2h1M8 3h1M12 7h1M11 8h2M11 9h1M10 10h2M9 11h2M9 13h3" />
<path stroke="#e1e1e1" d="M7 3h1M7 7h1M4 8h1M6 8h1M4 9h2M4 10h2M5 11h1M4 13h2" />
<path stroke="#c1c1c1" d="M8 7h1M7 8h3M6 9h5M6 10h4M6 11h3M6 13h3" />
</svg>
